X: 14480
T: Gan Ainm
R: jig
M: 6/8
K: Dmixolydian
|:ADD ~D3|ADD ABc|ADD DED|cDD BDD|
ADD (4DDDD|ADD ABc|dDD cDD|AGF D2D:|
|:cDD BDD|AGE DED|cDD BDD|AGE ~D3|
cDD BDD|AGE ABc|dDD cDD|AGE (4DDDD:|

